X:208
T:Lord Moyra
R:
M:4/4
K:D
d2 D2 F2 A>A | B2 e>d c>A B>c | d2 D2 F2 A>A | B2 c2 d4 :|
f3 g f>e d2 | f3 g f>e d2 | e2 c>d e2 c>d | g2 f2 e2  d>d |
d2 D2 F2 A>A | B2 e>d c>A B>c | d2 D2 F2 A>A | B2 c2 d4 ||
